X:1
T:McKenna's
C:Traditional
S:Jackie Daly
N:Play last 24 bars
N:then 2 times through
N:Hurry the Jug, tune 1
Z:Gordon Turnbull, Edinburgh
Z:gturnbull@theflow.org.uk
Z:http://www.theflow.org.uk
B:Bernie Stocks, Vol 5
R:Jig
M:6/8
K:D
EAA ABd | cAG E2 D | EFG EFG | EAF GED |
EAA ABd | cAG Ecd | cBc ABG  | [1 FDD DEF :|| [2 FDD D2 e|]
fed dcd | fed d2 e | fed efd | cAA A2 e |
fga efg | fed fed | cBc ABG  | [1 FDD D e :|| [2 FDD DEE|]
